svg/ionicons/logo-gitlab.svg

<svg width="512" height="512" viewBox="0 0 512 512" xmlns="http://www.w3.org/2000/svg">
<path d="M488.028 207.68L487.354 205.949L422.019 34.7949C420.69 31.4404 418.336 28.5947 415.296 26.6663C412.254 24.7705 408.705 23.8575 405.129 24.0504C401.554 24.2433 398.123 25.5329 395.301 27.7451C392.51 30.0207 390.485 33.1043 389.502 36.5762L345.388 172.054H166.756L122.641 36.5762C121.685 33.0854 119.655 29.9864 116.843 27.72C114.02 25.5078 110.59 24.2182 107.014 24.0253C103.438 23.8324 99.8898 24.7454 96.8475 26.6412C93.8139 28.5774 91.4622 31.4206 90.1241 34.7698L24.6648 205.848L24.015 207.579C14.6098 232.246 13.4489 259.314 20.7073 284.701C27.9656 310.089 43.2498 332.419 64.2553 348.326L64.4803 348.501L65.0801 348.928L164.606 423.742L213.844 461.149L243.837 483.879C247.345 486.553 251.629 488 256.034 488C260.439 488 264.723 486.553 268.231 483.879L298.224 461.149L347.462 423.742L447.588 348.476L447.838 348.276C468.796 332.366 484.045 310.059 491.292 284.706C498.54 259.353 497.394 232.323 488.028 207.68Z" />
</svg>

<svg xmlns="http://www.w3.org/2000/svg" width="512" height="512" viewBox="0 0 512 512"><path d="m488.028 207.68-.674-1.731-65.335-171.154a17.07 17.07 0 00-6.723-8.129 17.445 17.445 0 00-19.995 1.08 17.57 17.57 0 00-5.799 8.83l-44.114 135.478H166.756L122.641 36.576a17.2 17.2 0 00-5.798-8.856 17.44 17.44 0 00-19.996-1.079 17.22 17.22 0 00-6.723 8.129l-65.46 171.078-.649 1.731a122.2 122.2 0 00-3.308 77.122c7.259 25.388 22.543 47.718 43.548 63.625l.225.175.6.427 99.526 74.814 49.238 37.407 29.993 22.73A20.1 20.1 0 00256.034 488c4.405 0 8.689-1.447 12.197-4.121l29.993-22.73 49.238-37.407 100.126-75.266.25-.2c20.958-15.91 36.207-38.217 43.454-63.57a122.26 122.26 0 00-3.264-77.026"/></svg>
